X:275
T:How Firm A Foundation
%%stretchlast false
M:2/2
L:1/4
K:F clef=C1
"^i"[F,Fc] "^IV²"[F,FBd] "^I"[F,CAf] "^I¹"[A,Fcf] | "^IV"[B,FBd] "^IV¹"[DFBf] "^I"[FAc]2 | [F,CAf] "^ii"[F,CBg] "^I"[F,Fca]2 | "^V²"[G,Ecg] "^iii"[G,Dca] "^V"[CEc]2 | "^v7"[CBc]2 "^I"[F,FAf]2 | "^IV"[B,FBd] [B,Fdf] "^I¹"[A,Fc]2 | "^vi"[DFAf] "^ii7²"[DFBg] "^I²"[CFca]2 | "^V7"[CEBg] [CEBg] "^I"[F,FAf]2 | [Fca]2 [FAfc']2 | [Fca] "^V¹"[EGcc'] "^vi"[DAdf]2 | "^I¹"[A,Fcf] "^V²"[G,Ecg] "^I"[F,Fca]2 | "^V²"[G,Ecg] "^iii"[G,Dca] "^V"[CEc]2 | "^v7"[CBc]2 "^I¹"[A,FAf]2 | "^IV"[B,FBd] [B,Fdf] "^I¹"[A,Fc]2 | "^vi"[DFAf] "^ii7²"[DFBg] "^I²"[CFca]2 | "^V7"[CEBg] [CEBg] "^I"[F,FAf]2 |]
